dist/img/main/skar_ph.svg

<svg width="88" height="636" viewBox="0 0 88 636" fill="none" xmlns="http://www.w3.org/2000/svg">
<g opacity="0.201567">
<path d="M44.45 599.95H73V609.65H44.45L1.34999 635.9L1.34999 627.4C1.34999 626.533 1.56666 625.85 1.99999 625.35C2.39999 624.85 2.93332 624.417 3.59999 624.05L31.45 607.65C32.6167 607.05 33.7167 606.5 34.75 606C35.75 605.5 36.7667 605.067 37.8 604.7C36.7667 604.333 35.75 603.917 34.75 603.45C33.7167 602.983 32.6167 602.467 31.45 601.9L3.59999 585.55C3.03332 585.25 2.51666 584.833 2.04999 584.3C1.58332 583.767 1.34999 583.083 1.34999 582.25L1.34999 573.7L44.45 599.95Z" fill="#D6BD96" fill-opacity="0.54"/>
<path d="M65.1 533.807L73 533.857V578.007H1.34999L1.34999 533.857H9.24999L9.24999 568.307H33.05V540.407H40.65V568.307H65.1V533.807Z" fill="#D6BD96" fill-opacity="0.54"/>
<path d="M1.34999 475.601L73 504.801V513.501L1.34999 542.701L1.34999 534.951C1.34999 534.085 1.56666 533.385 1.99999 532.851C2.43332 532.318 2.98332 531.918 3.64999 531.651L54.2 511.451C55.3333 511.018 56.5667 510.601 57.9 510.201C59.2333 509.768 60.6333 509.385 62.1 509.051C60.6333 508.718 59.2333 508.368 57.9 508.001C56.5667 507.635 55.3333 507.235 54.2 506.801L3.64999 486.651C3.08332 486.451 2.56666 486.068 2.09999 485.501C1.59999 484.901 1.34999 484.185 1.34999 483.351L1.34999 475.601Z" fill="#D6BD96" fill-opacity="0.54"/>
<path d="M81.25 446.235H87.25V485.635H81.25V446.235Z" fill="#D6BD96" fill-opacity="0.54"/>
<path d="M12.55 410.746C13.05 411.046 13.4333 411.379 13.7 411.746C13.9333 412.079 14.05 412.496 14.05 412.996C14.05 413.563 13.7667 414.229 13.2 414.996C12.6333 415.763 12.0167 416.729 11.35 417.896C10.65 419.029 10.0167 420.413 9.44999 422.046C8.88332 423.646 8.59999 425.596 8.59999 427.896C8.59999 430.063 8.89999 431.979 9.49999 433.646C10.0667 435.279 10.85 436.663 11.85 437.796C12.85 438.896 14.0333 439.729 15.4 440.296C16.7333 440.863 18.1833 441.146 19.75 441.146C21.75 441.146 23.4167 440.663 24.75 439.696C26.05 438.696 27.1667 437.396 28.1 435.796C29.0333 434.163 29.85 432.329 30.55 430.296C31.2167 428.229 31.9167 426.129 32.65 423.996C33.3833 421.829 34.2167 419.729 35.15 417.696C36.05 415.629 37.2 413.796 38.6 412.196C40 410.563 41.7167 409.263 43.75 408.296C45.7833 407.296 48.2833 406.796 51.25 406.796C54.3833 406.796 57.3333 407.329 60.1 408.396C62.8333 409.463 65.2167 411.029 67.25 413.096C69.2833 415.129 70.8833 417.646 72.05 420.646C73.2167 423.613 73.8 426.996 73.8 430.796C73.8 435.463 72.9667 439.696 71.3 443.496C69.6 447.296 67.3167 450.546 64.45 453.246L59.85 450.446C59.4833 450.179 59.1833 449.863 58.95 449.496C58.6833 449.096 58.55 448.663 58.55 448.196C58.55 447.763 58.7333 447.279 59.1 446.746C59.4333 446.179 59.8667 445.546 60.4 444.846C60.9333 444.146 61.5167 443.346 62.15 442.446C62.7833 441.546 63.3667 440.529 63.9 439.396C64.4333 438.229 64.8833 436.913 65.25 435.446C65.5833 433.979 65.75 432.329 65.75 430.496C65.75 428.196 65.4333 426.146 64.8 424.346C64.1667 422.546 63.2833 421.029 62.15 419.796C60.9833 418.529 59.6 417.563 58 416.896C56.4 416.229 54.6167 415.896 52.65 415.896C50.4833 415.896 48.7167 416.396 47.35 417.396C45.95 418.363 44.7833 419.646 43.85 421.246C42.9167 422.846 42.1333 424.679 41.5 426.746C40.8333 428.813 40.1667 430.913 39.5 433.046C38.8 435.179 38 437.279 37.1 439.346C36.2 441.413 35.0333 443.246 33.6 444.846C32.1667 446.446 30.3833 447.746 28.25 448.746C26.0833 449.713 23.4167 450.196 20.25 450.196C17.7167 450.196 15.2667 449.713 12.9 448.746C10.5333 447.746 8.43333 446.313 6.59999 444.446C4.76666 442.546 3.29999 440.229 2.19999 437.496C1.09999 434.729 0.549988 431.563 0.549988 427.996C0.549988 423.996 1.18332 420.363 2.44999 417.096C3.71666 413.796 5.54999 410.896 7.94999 408.396L12.55 410.746Z" fill="#D6BD96" fill-opacity="0.54"/>
<path d="M32.75 397.008V393.358C32.75 392.092 32.6 391.075 32.3 390.308C31.9667 389.542 31.4167 388.842 30.65 388.208L3.64999 364.358C2.78332 363.692 2.18332 362.992 1.84999 362.258C1.51666 361.525 1.34999 360.625 1.34999 359.558L1.34999 351.358L32.2 378.658C33 379.325 33.6667 379.975 34.2 380.608C34.7 381.208 35.1167 381.858 35.45 382.558C35.75 381.658 36.2 380.842 36.8 380.108C37.3667 379.375 38.1167 378.658 39.05 377.958L73 349.458V357.858C73 358.492 72.9667 359.042 72.9 359.508C72.8 359.942 72.6667 360.325 72.5 360.658C72.3 360.992 72.0833 361.292 71.85 361.558C71.5833 361.792 71.2833 362.025 70.95 362.258L42.5 386.958C41.6667 387.625 41.0833 388.342 40.75 389.108C40.3833 389.875 40.2 391.042 40.2 392.608V397.008H73V406.658H1.34999L1.34999 397.008H32.75Z" fill="#D6BD96" fill-opacity="0.54"/>
<path d="M46.4 315.957L17.25 327.207C16.3833 327.54 15.3833 327.89 14.25 328.257C13.0833 328.623 11.85 328.973 10.55 329.307C13.25 330.007 15.5 330.723 17.3 331.457L46.4 342.707V315.957ZM73 295.757V303.257C73 304.123 72.7833 304.823 72.35 305.357C71.9167 305.89 71.3667 306.29 70.7 306.557L53.4 313.257V345.407L70.7 352.107C71.3 352.307 71.8333 352.69 72.3 353.257C72.7667 353.823 73 354.523 73 355.357V362.857L1.34999 334.207L1.34999 324.407L73 295.757Z" fill="#D6BD96" fill-opacity="0.54"/>
<path d="M36.05 280.04C36.05 277.24 35.7167 274.774 35.05 272.64C34.35 270.474 33.3833 268.674 32.15 267.24C30.8833 265.774 29.3833 264.674 27.65 263.94C25.9167 263.207 24 262.84 21.9 262.84C17.6333 262.84 14.4167 264.24 12.25 267.04C10.0833 269.84 8.99999 274.04 8.99999 279.64V290.24H36.05V280.04ZM73 246.94V255.54C73 257.307 72.3167 258.607 70.95 259.44L45.35 278.04C44.55 278.607 43.9833 279.224 43.65 279.89C43.2833 280.524 43.1 281.524 43.1 282.89V290.24H73V299.89H1.34999L1.34999 279.64C1.34999 275.107 1.81666 271.19 2.74999 267.89C3.64999 264.59 4.96666 261.874 6.69999 259.74C8.43333 257.574 10.5333 255.974 13 254.94C15.4333 253.907 18.1667 253.39 21.2 253.39C23.7333 253.39 26.1 253.79 28.3 254.59C30.5 255.39 32.4833 256.557 34.25 258.09C35.9833 259.59 37.4667 261.44 38.7 263.64C39.9333 265.807 40.8667 268.274 41.5 271.04C42.2 269.807 43.2167 268.74 44.55 267.84L73 246.94Z" fill="#D6BD96" fill-opacity="0.54"/>
<path d="M65.1 206.554L73 206.604V250.754H1.34999L1.34999 206.604H9.24999L9.24999 241.054H33.05L33.05 213.154H40.65L40.65 241.054H65.1V206.554Z" fill="#D6BD96" fill-opacity="0.54"/>
<path d="M9.49999 158.149V181.349H73V190.999H9.49999V214.249H1.34999L1.34999 158.149H9.49999Z" fill="#D6BD96" fill-opacity="0.54"/>
<path d="M12.55 124.719C13.05 125.019 13.4333 125.352 13.7 125.719C13.9333 126.052 14.05 126.469 14.05 126.969C14.05 127.536 13.7667 128.202 13.2 128.969C12.6333 129.736 12.0167 130.702 11.35 131.869C10.65 133.002 10.0167 134.386 9.44999 136.019C8.88332 137.619 8.59999 139.569 8.59999 141.869C8.59999 144.036 8.89999 145.952 9.49999 147.619C10.0667 149.252 10.85 150.636 11.85 151.769C12.85 152.869 14.0333 153.702 15.4 154.269C16.7333 154.836 18.1833 155.119 19.75 155.119C21.75 155.119 23.4167 154.636 24.75 153.669C26.05 152.669 27.1667 151.369 28.1 149.769C29.0333 148.136 29.85 146.302 30.55 144.269C31.2167 142.202 31.9167 140.102 32.65 137.969C33.3833 135.802 34.2167 133.702 35.15 131.669C36.05 129.602 37.2 127.769 38.6 126.169C40 124.536 41.7167 123.236 43.75 122.269C45.7833 121.269 48.2833 120.769 51.25 120.769C54.3833 120.769 57.3333 121.302 60.1 122.369C62.8333 123.436 65.2167 125.002 67.25 127.069C69.2833 129.102 70.8833 131.619 72.05 134.619C73.2167 137.586 73.8 140.969 73.8 144.769C73.8 149.436 72.9667 153.669 71.3 157.469C69.6 161.269 67.3167 164.519 64.45 167.219L59.85 164.419C59.4833 164.152 59.1833 163.836 58.95 163.469C58.6833 163.069 58.55 162.636 58.55 162.169C58.55 161.736 58.7333 161.252 59.1 160.719C59.4333 160.152 59.8667 159.519 60.4 158.819C60.9333 158.119 61.5167 157.319 62.15 156.419C62.7833 155.519 63.3667 154.502 63.9 153.369C64.4333 152.202 64.8833 150.886 65.25 149.419C65.5833 147.952 65.75 146.302 65.75 144.469C65.75 142.169 65.4333 140.119 64.8 138.319C64.1667 136.519 63.2833 135.002 62.15 133.769C60.9833 132.502 59.6 131.536 58 130.869C56.4 130.202 54.6167 129.869 52.65 129.869C50.4833 129.869 48.7167 130.369 47.35 131.369C45.95 132.336 44.7833 133.619 43.85 135.219C42.9167 136.819 42.1333 138.652 41.5 140.719C40.8333 142.786 40.1667 144.886 39.5 147.019C38.8 149.152 38 151.252 37.1 153.319C36.2 155.386 35.0333 157.219 33.6 158.819C32.1667 160.419 30.3833 161.719 28.25 162.719C26.0833 163.686 23.4167 164.169 20.25 164.169C17.7167 164.169 15.2667 163.686 12.9 162.719C10.5333 161.719 8.43333 160.286 6.59999 158.419C4.76666 156.519 3.29999 154.202 2.19999 151.469C1.09999 148.702 0.549988 145.536 0.549988 141.969C0.549988 137.969 1.18332 134.336 2.44999 131.069C3.71666 127.769 5.54999 124.869 7.94999 122.369L12.55 124.719Z" fill="#D6BD96" fill-opacity="0.54"/>
<path d="M32.75 110.981V107.331C32.75 106.065 32.6 105.048 32.3 104.281C31.9667 103.515 31.4167 102.815 30.65 102.181L3.64999 78.3315C2.78332 77.6648 2.18332 76.9648 1.84999 76.2314C1.51666 75.4981 1.34999 74.5982 1.34999 73.5315L1.34999 65.3315L32.2 92.6315C33 93.2981 33.6667 93.9481 34.2 94.5815C34.7 95.1815 35.1167 95.8314 35.45 96.5314C35.75 95.6314 36.2 94.8148 36.8 94.0815C37.3667 93.3481 38.1167 92.6315 39.05 91.9315L73 63.4315V71.8315C73 72.4648 72.9667 73.0148 72.9 73.4814C72.8 73.9148 72.6667 74.2981 72.5 74.6315C72.3 74.9648 72.0833 75.2648 71.85 75.5314C71.5833 75.7648 71.2833 75.9981 70.95 76.2314L42.5 100.931C41.6667 101.598 41.0833 102.315 40.75 103.081C40.3833 103.848 40.2 105.015 40.2 106.581V110.981H73V120.631H1.34999L1.34999 110.981H32.75Z" fill="#D6BD96" fill-opacity="0.54"/>
<path d="M73 58.2798V67.9798H1.34999L1.34999 58.2798H73Z" fill="#D6BD96" fill-opacity="0.54"/>
<path d="M44.45 26.6118H73V36.3118H44.45L1.34999 62.5618L1.34999 54.0618C1.34999 53.1952 1.56666 52.5118 1.99999 52.0118C2.39999 51.5118 2.93332 51.0785 3.59999 50.7118L31.45 34.3118C32.6167 33.7118 33.7167 33.1618 34.75 32.6618C35.75 32.1618 36.7667 31.7285 37.8 31.3618C36.7667 30.9952 35.75 30.5785 34.75 30.1118C33.7167 29.6451 32.6167 29.1285 31.45 28.5618L3.59999 12.2118C3.03332 11.9118 2.51666 11.4951 2.04999 10.9618C1.58332 10.4285 1.34999 9.74514 1.34999 8.9118L1.34999 0.361816L44.45 26.6118Z" fill="#D6BD96" fill-opacity="0.54"/>
</g>
</svg>

<svg width="88" height="636" fill="none" xmlns="http://www.w3.org/2000/svg"><g opacity=".202" fill="#D6BD96" fill-opacity=".54"><path d="M44.45 599.95H73v9.7H44.45L1.35 635.9v-8.5c0-.867.217-1.55.65-2.05.4-.5.933-.933 1.6-1.3l27.85-16.4c1.167-.6 2.267-1.15 3.3-1.65 1-.5 2.017-.933 3.05-1.3a34.46 34.46 0 0 1-3.05-1.25 130.95 130.95 0 0 1-3.3-1.55L3.6 585.55a5.456 5.456 0 0 1-1.55-1.25c-.467-.533-.7-1.217-.7-2.05v-8.55l43.1 26.25Z"/><path d="m65.1 533.807 7.9.05v44.15H1.35v-44.15h7.9v34.45h23.8v-27.9h7.6v27.9H65.1v-34.5Z"/><path d="m1.35 475.601 71.65 29.2v8.7l-71.65 29.2v-7.75c0-.866.217-1.566.65-2.1a4.003 4.003 0 0 1 1.65-1.2l50.55-20.2a53.317 53.317 0 0 1 3.7-1.25 48.365 48.365 0 0 1 4.2-1.15 95.587 95.587 0 0 1-4.2-1.05 39.886 39.886 0 0 1-3.7-1.2l-50.55-20.15c-.567-.2-1.083-.583-1.55-1.15-.5-.6-.75-1.316-.75-2.15v-7.75Zm79.9-29.366h6v39.4h-6v-39.4Zm-68.7-35.489c.5.3.883.633 1.15 1 .233.333.35.75.35 1.25 0 .567-.283 1.233-.85 2-.567.767-1.183 1.733-1.85 2.9-.7 1.133-1.333 2.517-1.9 4.15-.567 1.6-.85 3.55-.85 5.85 0 2.167.3 4.083.9 5.75.567 1.633 1.35 3.017 2.35 4.15 1 1.1 2.183 1.933 3.55 2.5 1.333.567 2.783.85 4.35.85 2 0 3.667-.483 5-1.45 1.3-1 2.417-2.3 3.35-3.9.933-1.633 1.75-3.467 2.45-5.5a347.402 347.402 0 0 1 2.1-6.3 65.116 65.116 0 0 1 2.5-6.3c.9-2.067 2.05-3.9 3.45-5.5 1.4-1.633 3.117-2.933 5.15-3.9 2.033-1 4.533-1.5 7.5-1.5 3.133 0 6.083.533 8.85 1.6a20.23 20.23 0 0 1 7.15 4.7c2.033 2.033 3.633 4.55 4.8 7.55 1.167 2.967 1.75 6.35 1.75 10.15 0 4.667-.833 8.9-2.5 12.7-1.7 3.8-3.983 7.05-6.85 9.75l-4.6-2.8a3.477 3.477 0 0 1-.9-.95c-.267-.4-.4-.833-.4-1.3 0-.433.183-.917.55-1.45.333-.567.767-1.2 1.3-1.9s1.117-1.5 1.75-2.4c.633-.9 1.217-1.917 1.75-3.05.533-1.167.983-2.483 1.35-3.95.333-1.467.5-3.117.5-4.95 0-2.3-.317-4.35-.95-6.15-.633-1.8-1.517-3.317-2.65-4.55a11.685 11.685 0 0 0-4.15-2.9c-1.6-.667-3.383-1-5.35-1-2.167 0-3.933.5-5.3 1.5-1.4.967-2.567 2.25-3.5 3.85-.933 1.6-1.717 3.433-2.35 5.5a729.219 729.219 0 0 0-2 6.3c-.7 2.133-1.5 4.233-2.4 6.3-.9 2.067-2.067 3.9-3.5 5.5-1.433 1.6-3.217 2.9-5.35 3.9-2.167.967-4.833 1.45-8 1.45-2.533 0-4.983-.483-7.35-1.45a19.264 19.264 0 0 1-6.3-4.3c-1.833-1.9-3.3-4.217-4.4-6.95-1.1-2.767-1.65-5.933-1.65-9.5 0-4 .633-7.633 1.9-10.9 1.267-3.3 3.1-6.2 5.5-8.7l4.6 2.35Zm20.2-13.738v-3.65c0-1.266-.15-2.283-.45-3.05-.333-.766-.883-1.466-1.65-2.1l-27-23.85c-.867-.666-1.467-1.366-1.8-2.1-.333-.733-.5-1.633-.5-2.7v-8.2l30.85 27.3c.8.667 1.467 1.317 2 1.95.5.6.917 1.25 1.25 1.95.3-.9.75-1.716 1.35-2.45.567-.733 1.317-1.45 2.25-2.15l33.95-28.5v8.4c0 .634-.033 1.184-.1 1.65a5.13 5.13 0 0 1-.4 1.15 6.18 6.18 0 0 1-.65.9c-.267.234-.567.467-.9.7l-28.45 24.7c-.833.667-1.417 1.384-1.75 2.15-.367.767-.55 1.934-.55 3.5v4.4H73v9.65H1.35v-9.65h31.4Z"/><path d="m46.4 315.957-29.15 11.25c-.867.333-1.867.683-3 1.05-1.167.366-2.4.716-3.7 1.05 2.7.7 4.95 1.416 6.75 2.15l29.1 11.25v-26.75Zm26.6-20.2v7.5c0 .866-.217 1.566-.65 2.1a4.003 4.003 0 0 1-1.65 1.2l-17.3 6.7v32.15l17.3 6.7c.6.2 1.133.583 1.6 1.15.467.566.7 1.266.7 2.1v7.5l-71.65-28.65v-9.8L73 295.757Z"/><path d="M36.05 280.04c0-2.8-.333-5.266-1-7.4-.7-2.166-1.667-3.966-2.9-5.4-1.267-1.466-2.767-2.566-4.5-3.3-1.733-.733-3.65-1.1-5.75-1.1-4.267 0-7.483 1.4-9.65 4.2-2.167 2.8-3.25 7-3.25 12.6v10.6h27.05v-10.2ZM73 246.94v8.6c0 1.767-.683 3.067-2.05 3.9l-25.6 18.6c-.8.567-1.367 1.184-1.7 1.85-.367.634-.55 1.634-.55 3v7.35H73v9.65H1.35v-20.25c0-4.533.467-8.45 1.4-11.75.9-3.3 2.217-6.016 3.95-8.15 1.733-2.166 3.833-3.766 6.3-4.8 2.433-1.033 5.167-1.55 8.2-1.55 2.533 0 4.9.4 7.1 1.2 2.2.8 4.183 1.967 5.95 3.5 1.733 1.5 3.217 3.35 4.45 5.55 1.233 2.167 2.167 4.634 2.8 7.4.7-1.233 1.717-2.3 3.05-3.2L73 246.94Z"/><path d="m65.1 206.554 7.9.05v44.15H1.35v-44.15h7.9v34.45h23.8v-27.9h7.6v27.9H65.1v-34.5Z"/><path d="M9.5 158.149v23.2H73v9.65H9.5v23.25H1.35v-56.1H9.5Z"/><path d="M12.55 124.719c.5.3.883.633 1.15 1 .233.333.35.75.35 1.25 0 .567-.283 1.233-.85 2-.567.767-1.183 1.733-1.85 2.9-.7 1.133-1.333 2.517-1.9 4.15-.567 1.6-.85 3.55-.85 5.85 0 2.167.3 4.083.9 5.75.567 1.633 1.35 3.017 2.35 4.15 1 1.1 2.183 1.933 3.55 2.5 1.333.567 2.783.85 4.35.85 2 0 3.667-.483 5-1.45 1.3-1 2.417-2.3 3.35-3.9.933-1.633 1.75-3.467 2.45-5.5a347.402 347.402 0 0 1 2.1-6.3 65.116 65.116 0 0 1 2.5-6.3c.9-2.067 2.05-3.9 3.45-5.5 1.4-1.633 3.117-2.933 5.15-3.9 2.033-1 4.533-1.5 7.5-1.5 3.133 0 6.083.533 8.85 1.6a20.23 20.23 0 0 1 7.15 4.7c2.033 2.033 3.633 4.55 4.8 7.55 1.167 2.967 1.75 6.35 1.75 10.15 0 4.667-.833 8.9-2.5 12.7-1.7 3.8-3.983 7.05-6.85 9.75l-4.6-2.8a3.477 3.477 0 0 1-.9-.95c-.267-.4-.4-.833-.4-1.3 0-.433.183-.917.55-1.45.333-.567.767-1.2 1.3-1.9s1.117-1.5 1.75-2.4c.633-.9 1.217-1.917 1.75-3.05.533-1.167.983-2.483 1.35-3.95.333-1.467.5-3.117.5-4.95 0-2.3-.317-4.35-.95-6.15-.633-1.8-1.517-3.317-2.65-4.55a11.685 11.685 0 0 0-4.15-2.9c-1.6-.667-3.383-1-5.35-1-2.167 0-3.933.5-5.3 1.5-1.4.967-2.567 2.25-3.5 3.85-.933 1.6-1.717 3.433-2.35 5.5a729.219 729.219 0 0 0-2 6.3c-.7 2.133-1.5 4.233-2.4 6.3-.9 2.067-2.067 3.9-3.5 5.5-1.433 1.6-3.217 2.9-5.35 3.9-2.167.967-4.833 1.45-8 1.45-2.533 0-4.983-.483-7.35-1.45a19.264 19.264 0 0 1-6.3-4.3c-1.833-1.9-3.3-4.217-4.4-6.95-1.1-2.767-1.65-5.933-1.65-9.5 0-4 .633-7.633 1.9-10.9 1.267-3.3 3.1-6.2 5.5-8.7l4.6 2.35Zm20.2-13.738v-3.65c0-1.266-.15-2.283-.45-3.05-.333-.766-.883-1.466-1.65-2.1l-27-23.85c-.867-.666-1.467-1.366-1.8-2.1-.333-.733-.5-1.633-.5-2.7v-8.2l30.85 27.3c.8.667 1.467 1.317 2 1.95.5.6.917 1.25 1.25 1.95.3-.9.75-1.716 1.35-2.45.567-.733 1.317-1.45 2.25-2.15L73 63.431v8.4c0 .634-.033 1.184-.1 1.65a5.13 5.13 0 0 1-.4 1.15 6.18 6.18 0 0 1-.65.9c-.267.234-.567.467-.9.7l-28.45 24.7c-.833.667-1.417 1.384-1.75 2.15-.367.767-.55 1.934-.55 3.5v4.4H73v9.65H1.35v-9.65h31.4Z"/><path d="M73 58.28v9.7H1.35v-9.7H73Z"/><path d="M44.45 26.612H73v9.7H44.45l-43.1 26.25v-8.5c0-.867.217-1.55.65-2.05.4-.5.933-.934 1.6-1.3l27.85-16.4c1.167-.6 2.267-1.15 3.3-1.65 1-.5 2.017-.933 3.05-1.3a34.43 34.43 0 0 1-3.05-1.25 130.95 130.95 0 0 1-3.3-1.55L3.6 12.212a5.45 5.45 0 0 1-1.55-1.25c-.467-.534-.7-1.217-.7-2.05V.362l43.1 26.25Z"/></g></svg>
